src/Static/Positions/ks-position-40.svg

<?xml version="1.0" encoding="UTF-8"?>
<svg width="298px" height="113px" viewBox="0 0 298 113" version="1.1" xmlns="http://www.w3.org/2000/svg" xmlns:xlink="http://www.w3.org/1999/xlink">
    <title>sex-etsy-40</title>
    <defs>
        <path d="M37.1522,38.8083 C29.1804,41.9139 23.3393,49.4468 22.8408,58.5469 C22.4283,66.0778 25.7729,72.9417 31.2373,77.3296 L52.583,77.3296 L37.1522,38.8083 Z" id="path-1"></path>
        <filter x="-28.5%" y="-17.9%" width="159.5%" height="145.2%" filterUnits="objectBoundingBox" id="filter-2">
            <feMorphology radius="1.5" operator="dilate" in="SourceAlpha" result="shadowSpreadOuter1"></feMorphology>
            <feOffset dx="0" dy="2" in="shadowSpreadOuter1" result="shadowOffsetOuter1"></feOffset>
            <feGaussianBlur stdDeviation="2" in="shadowOffsetOuter1" result="shadowBlurOuter1"></feGaussianBlur>
            <feComposite in="shadowBlurOuter1" in2="SourceAlpha" operator="out" result="shadowBlurOuter1"></feComposite>
            <feColorMatrix values="0 0 0 0 0   0 0 0 0 0   0 0 0 0 0  0 0 0 1 0" type="matrix" in="shadowBlurOuter1"></feColorMatrix>
        </filter>
        <path d="M100.089018,57.1619441 C100.118761,54.0654153 100.183455,47.3302339 100.2831,36.9564 C100.3319,31.8773 104.5038,27.746 109.5819,27.746 L109.6981,27.747 C114.8006,27.7958 118.9315,32.0073 118.8827,37.1352 L118.7948,46.2566 C120.7379,45.5947 123.1195,45.1354 126.1333,45.0382 C131.5289,36.6412 129.5497,25.2609 116.4904,20.2454 C115.8825,20.0119 115.2895,19.8292 114.7026,19.6697 C113.2133,19.6465 111.7414,19.4496 110.301,19.0302 C100.4057,18.7334 90.6153,24.9497 63.1552,9.667 C56.3776,5.8949 51.1882,6.1505 47.3515,8.599 C47.8364,8.8331 48.3058,9.1046 48.7548,9.416 L79.5059,30.7501 C81.1856,31.9161 82.4688,33.5377 83.2178,35.44 L87.8965,47.3268 C89.6802,47.9487 91.5061,48.63 93.3726,49.3726 C93.303,50.8032 93.3641,52.1361 93.5393,53.3705 C93.6471736,54.1301034 93.7959056,54.8532466 93.9830307,55.5386529" id="path-3"></path>
        <filter x="-12.3%" y="-12.9%" width="122.8%" height="134.6%" filterUnits="objectBoundingBox" id="filter-4">
            <feMorphology radius="1.5" operator="dilate" in="SourceAlpha" result="shadowSpreadOuter1"></feMorphology>
            <feOffset dx="0" dy="2" in="shadowSpreadOuter1" result="shadowOffsetOuter1"></feOffset>
            <feGaussianBlur stdDeviation="2" in="shadowOffsetOuter1" result="shadowBlurOuter1"></feGaussianBlur>
            <feComposite in="shadowBlurOuter1" in2="SourceAlpha" operator="out" result="shadowBlurOuter1"></feComposite>
            <feColorMatrix values="0 0 0 0 0   0 0 0 0 0   0 0 0 0 0  0 0 0 1 0" type="matrix" in="shadowBlurOuter1"></feColorMatrix>
        </filter>
        <path d="M94.1709,56.1741 C93.1816,55.9492 92.1831,55.7717 91.1801,55.6687 L96.5352,69.2734 C97.542,71.8335 97.4922,74.6328 96.3946,77.1557 C95.297,79.6786 93.2823,81.623 90.7227,82.6303 C89.5118,83.1064 88.2442,83.3476 86.9522,83.3476 C85.2055,83.3476 83.5462,82.9111 82.0843,82.13 L83.3819,85.3691 C83.9896,86.8863 84.2869,88.4785 84.2952,90.0644 C85.4407,90.7058 86.6691,91.2994 87.987,91.8349 C107.7575,99.7327 120.7907,101.9117 143.114,100.5446 C153.0452,99.173 157.7434,94.555 159.987,89.0817 L205.7331,84.9789 L272.2536,96.8515 C272.9968,96.9838 273.735,97.0478 274.4645,97.0478 C280.4059,97.0478 285.6754,92.7954 286.7555,86.7421 C287.9684,79.9457 283.442,73.453 276.6461,72.2401 L208.4791,60.0736 C207.3873,59.8793 206.273,59.8314 205.1666,59.9291 L157.1916,64.2318 C156.9606,68.3367 154.0129,71.9487 149.8007,72.8202 L111.1337,80.8202 C110.5136,80.9481 109.8808,81.0126 109.2499,81.0126 C107.1015,81.0126 105.0038,80.2611 103.3427,78.8964 C101.1601,77.101 99.9238,74.4506 99.9501,71.6244 C100.008622,65.5317368 100.052514,60.9622394 100.081776,57.9159078" id="path-5"></path>
        <filter x="-4.8%" y="-14.6%" width="109.0%" height="137.8%" filterUnits="objectBoundingBox" id="filter-6">
            <feMorphology radius="1.5" operator="dilate" in="SourceAlpha" result="shadowSpreadOuter1"></feMorphology>
            <feOffset dx="0" dy="2" in="shadowSpreadOuter1" result="shadowOffsetOuter1"></feOffset>
            <feGaussianBlur stdDeviation="2" in="shadowOffsetOuter1" result="shadowBlurOuter1"></feGaussianBlur>
            <feComposite in="shadowBlurOuter1" in2="SourceAlpha" operator="out" result="shadowBlurOuter1"></feComposite>
            <feColorMatrix values="0 0 0 0 0   0 0 0 0 0   0 0 0 0 0  0 0 0 1 0" type="matrix" in="shadowBlurOuter1"></feColorMatrix>
        </filter>
        <path d="M55.9824,79.6295 L10.5,79.6295 C4.7012,79.6295 0,84.3307 0,90.1295 C0,95.9283 4.7012,100.6295 10.5,100.6295 L71.5,100.6295 C74.9854,100.6295 78.2432,98.9005 80.1963,96.0138 C82.1494,93.1276 82.543,89.4601 81.2471,86.2247 L78.0357,78.2083 C77.782,77.7673 77.5572,77.304 77.3663,76.819 L71.0179,60.6897 L65.0509,45.7941 L38.5325,27.3967 C38.4025,29.0019 38.3794,30.5614 38.4535,32.0192 C38.2612,33.317 38.3135,34.6603 38.6329,35.9886 C38.7509,36.4793 38.8925,36.9685 39.0859,37.4508 L55.9824,79.6295 Z" id="path-7"></path>
        <filter x="-10.4%" y="-10.5%" width="120.7%" height="124.8%" filterUnits="objectBoundingBox" id="filter-8">
            <feMorphology radius="1.5" operator="dilate" in="SourceAlpha" result="shadowSpreadOuter1"></feMorphology>
            <feOffset dx="0" dy="2" in="shadowSpreadOuter1" result="shadowOffsetOuter1"></feOffset>
            <feGaussianBlur stdDeviation="2" in="shadowOffsetOuter1" result="shadowBlurOuter1"></feGaussianBlur>
            <feComposite in="shadowBlurOuter1" in2="SourceAlpha" operator="out" result="shadowBlurOuter1"></feComposite>
            <feColorMatrix values="0 0 0 0 0   0 0 0 0 0   0 0 0 0 0  0 0 0 0.5 0" type="matrix" in="shadowBlurOuter1"></feColorMatrix>
        </filter>
        <path d="M154.7715,62.2945 C153.9893,58.5098 150.2881,56.0767 146.499,56.858 L116.333,63.0992 L116.583,37.1134 C116.6201,33.2477 113.5156,30.0836 109.6504,30.0465 C109.627,30.046 109.6045,30.046 109.582,30.046 C105.747,30.046 102.6201,33.1358 102.583,36.9786 L102.249702,71.6456 C102.2305,73.7628 103.1689,75.775 104.8037,77.1197 C106.0683,78.1593 107.6426,78.713 109.25,78.713 C109.7227,78.713 110.1973,78.6651 110.668,78.568 L149.335,70.568 C153.1211,69.7847 155.5547,66.0806 154.7715,62.2945 Z" id="path-9"></path>
        <filter x="-16.1%" y="-13.4%" width="132.3%" height="134.9%" filterUnits="objectBoundingBox" id="filter-10">
            <feMorphology radius="1.5" operator="dilate" in="SourceAlpha" result="shadowSpreadOuter1"></feMorphology>
            <feOffset dx="0" dy="2" in="shadowSpreadOuter1" result="shadowOffsetOuter1"></feOffset>
            <feGaussianBlur stdDeviation="2" in="shadowOffsetOuter1" result="shadowBlurOuter1"></feGaussianBlur>
            <feComposite in="shadowBlurOuter1" in2="SourceAlpha" operator="out" result="shadowBlurOuter1"></feComposite>
            <feColorMatrix values="0 0 0 0 0   0 0 0 0 0   0 0 0 0 0  0 0 0 0.5 0" type="matrix" in="shadowBlurOuter1"></feColorMatrix>
        </filter>
        <path d="M143.1736,11.3413 C144.3634,10.5866 145.6321,9.9223 146.9832,9.3744 C148.1055,8.9193 149.2427,8.5575 150.3864,8.283 C145.903,2.0021 137.978,-3.8558 122.4634,3.2528 C107.2165,10.2388 102.5347,6.0962 100.9271,1.8475 C99.3196,-2.4011 95.7594,11.1913 110.0581,16.5375 C121.0781,20.6578 135.9229,8.1018 143.1736,11.3413 Z" id="path-11"></path>
        <filter x="-16.6%" y="-37.4%" width="135.2%" height="197.7%" filterUnits="objectBoundingBox" id="filter-12">
            <feMorphology radius="1.5" operator="dilate" in="SourceAlpha" result="shadowSpreadOuter1"></feMorphology>
            <feOffset dx="0" dy="2" in="shadowSpreadOuter1" result="shadowOffsetOuter1"></feOffset>
            <feGaussianBlur stdDeviation="2" in="shadowOffsetOuter1" result="shadowBlurOuter1"></feGaussianBlur>
            <feComposite in="shadowBlurOuter1" in2="SourceAlpha" operator="out" result="shadowBlurOuter1"></feComposite>
            <feColorMatrix values="0 0 0 0 0   0 0 0 0 0   0 0 0 0 0  0 0 0 0.5 0" type="matrix" in="shadowBlurOuter1"></feColorMatrix>
        </filter>
        <ellipse id="path-13" cx="155.9232" cy="31.4312159" rx="21.4993759" ry="21.4994759"></ellipse>
        <filter x="-19.8%" y="-15.1%" width="139.5%" height="139.5%" filterUnits="objectBoundingBox" id="filter-14">
            <feMorphology radius="1.5" operator="dilate" in="SourceAlpha" result="shadowSpreadOuter1"></feMorphology>
            <feOffset dx="0" dy="2" in="shadowSpreadOuter1" result="shadowOffsetOuter1"></feOffset>
            <feGaussianBlur stdDeviation="2" in="shadowOffsetOuter1" result="shadowBlurOuter1"></feGaussianBlur>
            <feComposite in="shadowBlurOuter1" in2="SourceAlpha" operator="out" result="shadowBlurOuter1"></feComposite>
            <feColorMatrix values="0 0 0 0 0   0 0 0 0 0   0 0 0 0 0  0 0 0 0.5 0" type="matrix" in="shadowBlurOuter1"></feColorMatrix>
        </filter>
        <path d="M67.0791,44.4019 L79.5059,75.9761 C80.7461,79.1255 83.7608,81.0479 86.9522,81.0479 C87.9268,81.0479 88.918,80.8687 89.8799,80.4903 C93.9912,78.8721 96.0127,74.2271 94.3945,70.1158 L81.0781,36.2828 C80.498,34.8101 79.4941,33.5421 78.1943,32.6397 L47.4443,11.3062 C43.8125,8.7881 38.83,9.6885 36.3105,13.3194 C33.7919,16.9493 34.6933,21.9341 38.3232,24.4527 L67.0791,44.4019 Z" id="path-15"></path>
        <filter x="-14.2%" y="-9.1%" width="128.3%" height="123.9%" filterUnits="objectBoundingBox" id="filter-16">
            <feMorphology radius="1.5" operator="dilate" in="SourceAlpha" result="shadowSpreadOuter1"></feMorphology>
            <feOffset dx="0" dy="2" in="shadowSpreadOuter1" result="shadowOffsetOuter1"></feOffset>
            <feGaussianBlur stdDeviation="2" in="shadowOffsetOuter1" result="shadowBlurOuter1"></feGaussianBlur>
            <feComposite in="shadowBlurOuter1" in2="SourceAlpha" operator="out" result="shadowBlurOuter1"></feComposite>
            <feColorMatrix values="0 0 0 0 0   0 0 0 0 0   0 0 0 0 0  0 0 0 0.5 0" type="matrix" in="shadowBlurOuter1"></feColorMatrix>
        </filter>
    </defs>
    <g id="Page-2" stroke="none" stroke-width="1" fill="none" fill-rule="evenodd">
        <g id="sex-etsy-40" transform="translate(5.000000, 4.000000)" fill-rule="nonzero">
            <g id="Path">
                <use fill="black" fill-opacity="1" filter="url(#filter-2)" xlink:href="#path-1"></use>
                <use stroke="#1A1A1D" stroke-width="3" fill="#4E4E50" xlink:href="#path-1"></use>
            </g>
            <g id="Path">
                <use fill="black" fill-opacity="1" filter="url(#filter-4)" xlink:href="#path-3"></use>
                <use stroke="#1A1A1D" stroke-width="3" fill="#6F2232" xlink:href="#path-3"></use>
            </g>
            <g id="Path">
                <use fill="black" fill-opacity="1" filter="url(#filter-6)" xlink:href="#path-5"></use>
                <use stroke="#1A1A1D" stroke-width="3" fill="#4E4E50" xlink:href="#path-5"></use>
            </g>
            <g id="Path">
                <use fill="black" fill-opacity="1" filter="url(#filter-8)" xlink:href="#path-7"></use>
                <use stroke="#1A1A1D" stroke-width="3" fill="#6F2232" xlink:href="#path-7"></use>
            </g>
            <g id="Path">
                <use fill="black" fill-opacity="1" filter="url(#filter-10)" xlink:href="#path-9"></use>
                <use stroke="#1A1A1D" stroke-width="3" fill="#6F2232" xlink:href="#path-9"></use>
            </g>
            <g id="Path">
                <use fill="black" fill-opacity="1" filter="url(#filter-12)" xlink:href="#path-11"></use>
                <use stroke="#1A1A1D" stroke-width="3" fill="#6F2232" xlink:href="#path-11"></use>
            </g>
            <g id="Oval" transform="translate(155.923200, 31.431216) rotate(-67.076018) translate(-155.923200, -31.431216) ">
                <use fill="black" fill-opacity="1" filter="url(#filter-14)" xlink:href="#path-13"></use>
                <use stroke="#1A1A1D" stroke-width="3" fill="#6F2232" xlink:href="#path-13"></use>
            </g>
            <g id="Path">
                <use fill="black" fill-opacity="1" filter="url(#filter-16)" xlink:href="#path-15"></use>
                <use stroke="#1A1A1D" stroke-width="3" fill="#6F2232" xlink:href="#path-15"></use>
            </g>
        </g>
    </g>
</svg>

<svg xmlns="http://www.w3.org/2000/svg" xmlns:xlink="http://www.w3.org/1999/xlink" width="298" height="113"><defs><filter id="o" width="128.3%" height="123.9%" x="-14.2%" y="-9.1%" filterUnits="objectBoundingBox"><feMorphology in="SourceAlpha" operator="dilate" radius="1.5" result="shadowSpreadOuter1"/><feOffset dy="2" in="shadowSpreadOuter1" result="shadowOffsetOuter1"/><feGaussianBlur in="shadowOffsetOuter1" result="shadowBlurOuter1" stdDeviation="2"/><feComposite in="shadowBlurOuter1" in2="SourceAlpha" operator="out" result="shadowBlurOuter1"/><feColorMatrix in="shadowBlurOuter1" values="0 0 0 0 0 0 0 0 0 0 0 0 0 0 0 0 0 0 0.5 0"/></filter><filter id="c" width="122.8%" height="134.6%" x="-12.3%" y="-12.9%" filterUnits="objectBoundingBox"><feMorphology in="SourceAlpha" operator="dilate" radius="1.5" result="shadowSpreadOuter1"/><feOffset dy="2" in="shadowSpreadOuter1" result="shadowOffsetOuter1"/><feGaussianBlur in="shadowOffsetOuter1" result="shadowBlurOuter1" stdDeviation="2"/><feComposite in="shadowBlurOuter1" in2="SourceAlpha" operator="out" result="shadowBlurOuter1"/><feColorMatrix in="shadowBlurOuter1" values="0 0 0 0 0 0 0 0 0 0 0 0 0 0 0 0 0 0 1 0"/></filter><filter id="e" width="109%" height="137.8%" x="-4.8%" y="-14.6%" filterUnits="objectBoundingBox"><feMorphology in="SourceAlpha" operator="dilate" radius="1.5" result="shadowSpreadOuter1"/><feOffset dy="2" in="shadowSpreadOuter1" result="shadowOffsetOuter1"/><feGaussianBlur in="shadowOffsetOuter1" result="shadowBlurOuter1" stdDeviation="2"/><feComposite in="shadowBlurOuter1" in2="SourceAlpha" operator="out" result="shadowBlurOuter1"/><feColorMatrix in="shadowBlurOuter1" values="0 0 0 0 0 0 0 0 0 0 0 0 0 0 0 0 0 0 1 0"/></filter><filter id="g" width="120.7%" height="124.8%" x="-10.4%" y="-10.5%" filterUnits="objectBoundingBox"><feMorphology in="SourceAlpha" operator="dilate" radius="1.5" result="shadowSpreadOuter1"/><feOffset dy="2" in="shadowSpreadOuter1" result="shadowOffsetOuter1"/><feGaussianBlur in="shadowOffsetOuter1" result="shadowBlurOuter1" stdDeviation="2"/><feComposite in="shadowBlurOuter1" in2="SourceAlpha" operator="out" result="shadowBlurOuter1"/><feColorMatrix in="shadowBlurOuter1" values="0 0 0 0 0 0 0 0 0 0 0 0 0 0 0 0 0 0 0.5 0"/></filter><filter id="a" width="159.5%" height="145.2%" x="-28.5%" y="-17.9%" filterUnits="objectBoundingBox"><feMorphology in="SourceAlpha" operator="dilate" radius="1.5" result="shadowSpreadOuter1"/><feOffset dy="2" in="shadowSpreadOuter1" result="shadowOffsetOuter1"/><feGaussianBlur in="shadowOffsetOuter1" result="shadowBlurOuter1" stdDeviation="2"/><feComposite in="shadowBlurOuter1" in2="SourceAlpha" operator="out" result="shadowBlurOuter1"/><feColorMatrix in="shadowBlurOuter1" values="0 0 0 0 0 0 0 0 0 0 0 0 0 0 0 0 0 0 1 0"/></filter><filter id="i" width="132.3%" height="134.9%" x="-16.1%" y="-13.4%" filterUnits="objectBoundingBox"><feMorphology in="SourceAlpha" operator="dilate" radius="1.5" result="shadowSpreadOuter1"/><feOffset dy="2" in="shadowSpreadOuter1" result="shadowOffsetOuter1"/><feGaussianBlur in="shadowOffsetOuter1" result="shadowBlurOuter1" stdDeviation="2"/><feComposite in="shadowBlurOuter1" in2="SourceAlpha" operator="out" result="shadowBlurOuter1"/><feColorMatrix in="shadowBlurOuter1" values="0 0 0 0 0 0 0 0 0 0 0 0 0 0 0 0 0 0 0.5 0"/></filter><filter id="k" width="135.2%" height="197.7%" x="-16.6%" y="-37.4%" filterUnits="objectBoundingBox"><feMorphology in="SourceAlpha" operator="dilate" radius="1.5" result="shadowSpreadOuter1"/><feOffset dy="2" in="shadowSpreadOuter1" result="shadowOffsetOuter1"/><feGaussianBlur in="shadowOffsetOuter1" result="shadowBlurOuter1" stdDeviation="2"/><feComposite in="shadowBlurOuter1" in2="SourceAlpha" operator="out" result="shadowBlurOuter1"/><feColorMatrix in="shadowBlurOuter1" values="0 0 0 0 0 0 0 0 0 0 0 0 0 0 0 0 0 0 0.5 0"/></filter><filter id="m" width="139.5%" height="139.5%" x="-19.8%" y="-15.1%" filterUnits="objectBoundingBox"><feMorphology in="SourceAlpha" operator="dilate" radius="1.5" result="shadowSpreadOuter1"/><feOffset dy="2" in="shadowSpreadOuter1" result="shadowOffsetOuter1"/><feGaussianBlur in="shadowOffsetOuter1" result="shadowBlurOuter1" stdDeviation="2"/><feComposite in="shadowBlurOuter1" in2="SourceAlpha" operator="out" result="shadowBlurOuter1"/><feColorMatrix in="shadowBlurOuter1" values="0 0 0 0 0 0 0 0 0 0 0 0 0 0 0 0 0 0 0.5 0"/></filter><path id="f" d="M94.17 56.17c-.99-.22-1.99-.4-2.99-.5l5.36 13.6c1 2.56.95 5.36-.15 7.89a10.23 10.23 0 01-9.44 6.19c-1.74 0-3.4-.44-4.87-1.22l1.3 3.24c.61 1.52.9 3.1.92 4.7 1.14.64 2.37 1.23 3.69 1.76 19.77 7.9 32.8 10.08 55.12 8.71 9.94-1.37 14.63-5.98 16.88-11.46l45.74-4.1 66.52 11.87a12.5 12.5 0 004.4-24.61l-68.17-12.17c-1.1-.2-2.2-.24-3.31-.14l-47.98 4.3a9.3 9.3 0 01-7.39 8.59l-38.67 8a9.34 9.34 0 01-7.79-1.92 9.26 9.26 0 01-3.39-7.28c.06-6.09.1-10.66.13-13.7"/><path id="d" d="M100.09 57.16c.03-3.1.1-9.83.2-20.2a9.33 9.33 0 019.3-9.21h.1a9.3 9.3 0 019.2 9.39l-.1 9.12a25.09 25.09 0 017.34-1.22c5.4-8.4 3.42-19.78-9.64-24.8-.6-.23-1.2-.41-1.79-.57a16.6 16.6 0 01-4.4-.64c-9.9-.3-19.68 5.92-47.14-9.36-6.78-3.78-11.97-3.52-15.8-1.07.48.23.95.5 1.4.82L79.5 30.75a10.27 10.27 0 013.7 4.69l4.69 11.89c1.78.62 3.6 1.3 5.47 2.04-.07 1.43 0 2.77.17 4 .1.76.26 1.48.44 2.17"/><path id="l" d="M143.17 11.34a23.82 23.82 0 017.22-3.06C145.9 2 137.98-3.86 122.46 3.25c-15.24 6.99-19.93 2.85-21.53-1.4-1.61-4.25-5.17 9.34 9.13 14.69 11.02 4.12 25.86-8.44 33.11-5.2z"/><path id="h" d="M55.98 79.63H10.5a10.5 10.5 0 000 21h61a10.5 10.5 0 009.75-14.4l-3.21-8.02c-.26-.44-.48-.9-.67-1.4L71.02 60.7l-5.97-14.9-26.52-18.4c-.13 1.61-.15 3.17-.08 4.63a10.42 10.42 0 00.64 5.43l16.9 42.18z"/><path id="p" d="M67.08 44.4L79.5 75.98a8 8 0 1014.88-5.86L81.08 36.28a8 8 0 00-2.89-3.64L47.44 11.31a8 8 0 00-9.12 13.14L67.08 44.4z"/><path id="b" d="M37.15 38.8a22.5 22.5 0 00-5.91 38.53h21.34L37.15 38.81z"/><path id="j" d="M154.77 62.3a7 7 0 00-8.27-5.44l-30.17 6.24.25-25.99a7 7 0 00-6.93-7.06c-.02 0-.05 0-.07 0a7 7 0 00-7 6.93l-.33 34.67a7 7 0 008.42 6.92l38.67-8a7 7 0 005.43-8.28z"/><circle id="n" cx="155.923" cy="31.431" r="21.499"/></defs><g fill="none" fill-rule="nonzero"><g transform="translate(5 4)"><use fill="#000" filter="url(#a)" xlink:href="#b"/><use fill="#4E4E50" stroke="#1A1A1D" stroke-width="3" xlink:href="#b"/></g><g transform="translate(5 4)"><use fill="#000" filter="url(#c)" xlink:href="#d"/><use fill="#6F2232" stroke="#1A1A1D" stroke-width="3" xlink:href="#d"/></g><g transform="translate(5 4)"><use fill="#000" filter="url(#e)" xlink:href="#f"/><use fill="#4E4E50" stroke="#1A1A1D" stroke-width="3" xlink:href="#f"/></g><g transform="translate(5 4)"><use fill="#000" filter="url(#g)" xlink:href="#h"/><use fill="#6F2232" stroke="#1A1A1D" stroke-width="3" xlink:href="#h"/></g><g transform="translate(5 4)"><use fill="#000" filter="url(#i)" xlink:href="#j"/><use fill="#6F2232" stroke="#1A1A1D" stroke-width="3" xlink:href="#j"/></g><g transform="translate(5 4)"><use fill="#000" filter="url(#k)" xlink:href="#l"/><use fill="#6F2232" stroke="#1A1A1D" stroke-width="3" xlink:href="#l"/></g><g transform="rotate(-67.076 161.44 29.66)"><use fill="#000" filter="url(#m)" xlink:href="#n"/><use fill="#6F2232" stroke="#1A1A1D" stroke-width="3" xlink:href="#n"/></g><g transform="translate(5 4)"><use fill="#000" filter="url(#o)" xlink:href="#p"/><use fill="#6F2232" stroke="#1A1A1D" stroke-width="3" xlink:href="#p"/></g></g></svg>
